/* XPM */
static const char * const flPreprocessor_xpm[] = {
/* width height ncolors chars_per_pixel */
"32 32 4 1",
/* colors */
". c none",
"a c #000000",
"b c #c0e0c0",
"c c #000000",
/* pixels */
"................................",
"................................",
"................................",
"................................",
".....aaaaaaaaaaaaaaaaaaaaaa.....",
".....aaaaaaaaaaaaaaaaaaaaaa.....",
"....aabbbbbbbbbbbbbbbbbbbbcc....",
"....aabbbbbbbbbbbbbbbbbbbbcc....",
"...aabbbbbbbbbbbbbbbbbbbbbbcc...",
"...aabbbbbbbccbbbbccbbbbbbbcc...",
"..aabbbbbbbbccbbbbccbbbbbbbbcc..",
"..aabbbbbbbbccbbbbccbbbbbbbbcc..",
".aabbbbbbccccccccccccccbbbbbbcc.",
".aabbbbbbccccccccccccccbbbbbbcc.",
"aabbbbbbbbbbccbbbbccbbbbbbbbbbcc",
"aabbbbbbbbbbccbbbbccbbbbbbbbbbcc",
"aabbbbbbbbbbccbbbbccbbbbbbbbbbcc",
"aabbbbbbbbbbccbbbbccbbbbbbbbbbcc",
".aabbbbbbccccccccccccccbbbbbbcc.",
".aabbbbbbccccccccccccccbbbbbbcc.",
"..aabbbbbbbbccbbbbccbbbbbbbbcc..",
"..aabbbbbbbbccbbbbccbbbbbbbbcc..",
"...aabbbbbbbccbbbbccbbbbbbbcc...",
"...aabbbbbbbbbbbbbbbbbbbbbbcc...",
"....aabbbbbbbbbbbbbbbbbbbbcc....",
"....aabbbbbbbbbbbbbbbbbbbbcc....",
".....aaaaaaaaaaaaaaaaaaaaaa.....",
".....aaaaaaaaaaaaaaaaaaaaaa.....",
"................................",
"................................",
"................................",
"................................",
};
